X: 9
T: The Humours Of Westmeath
R: slip jig
M: 9/8
L: 1/8
K: Dmaj
|: d3 dAG FED | ~d3 dAF ~G3 | ABc dAG FGA | =cBc E2 F GFE :|
D2 g fdf ecA | d2 g fdf g3 | d2 g fdf eAB | =cBc E2 F GFE |
D2 g fdf ecA | d2 g fdf g3 | afd gec dAB | =cBc E2 F GFE |]


Tune 428	Setting 22574

